X:3385
T:La Cinq-Cents (M. Perroneille)
O:england
M:3/4
L:1/8
K:G
D GA|B2 BA GB|A2- AG GF|Ec cB Ac|BA GF GA|\
B2 BA GB|A2- AG GF|Ec cB AF|G3:|
|:A Bc|d2- dc BG|E2- EF GA|B2 cB Ac|BA GA Bc|\
d2- dc BA|E2 EF GA|B2 cB AF|G3:|


